X:17
T: Die Koenigstochter
N: Q2040A
O: Nordeuropa, Schweden
N: Schwedische Fassung der Ballade.
R: Ballade, Betrug, Ehe, Tod
M: 4/4
L: 1/8
K: A
E | AAAB=c2cc | BAAGE2z
F | =GGGGG=FAF | E2z4-z
E | B2Bdd=ccB | AGA=cB2z
^D | EEAB=cBAG | A2z4-z

@@@ Tune index: 753
